X:1
T:Title
L:1/8
M:9/8
K:Bb
V:1 treble nm="Grand Piano"
V:1
 z3 z3[Q:1/4=140] D2 E | F3 B3 A2 G | F3 A3 G2 F | E2 D C2 =B, F2 D | E6 c2 c | c2 B B2 A A2 G | %6
 F6 C2 D | E2 F G2 A F3- | F6 D2 D | F3 B3 A2 G | F3 A3 G2 F | E2 D C2 =B, F2 D | E6 c2 c | %13
 c2 B B2 A A2 G | F6 C2 D | E2 F G3 F2 G | A6 F2 B |[M:12/8] d6- d2 d c2 B | B3 G6 A2 B | %19
 c3 c6 E2 F | E3 D6 F2 B | d3 d6 c2 B | B3 G6 A2 B | c3 F3 e3- e2 d | d3 B6 z3 |] %25

